icons/podcastindex.svg

<svg width="32" height="32" viewBox="0 0 32 32" fill="none" xmlns="http://www.w3.org/2000/svg">
<path d="M3.36667 28.6333C0.913333 26.18 0 22.18 0 16C0 9.82 0.913333 5.82 3.36667 3.36667C5.82 0.913333 9.82 0 16 0C22.18 0 26.18 0.913333 28.6333 3.36667C31.0867 5.82 32 9.82 32 16C32 22.18 31.0867 26.18 28.6333 28.6333C26.18 31.0867 22.18 32 16 32C9.82 32 5.82 31.0867 3.36667 28.6333Z" fill="white"/>
<path d="M13.9529 31.9628C12.9183 31.923 11.9535 31.8507 11.0546 31.7419L14.3918 16.1959C13.5551 15.6636 13 14.7281 13 13.6629C13 12.006 14.3431 10.6629 16 10.6629C17.6569 10.6629 19 12.006 19 13.6629C19 14.8537 18.3062 15.8824 17.3009 16.367L13.9529 31.9628Z" fill="#F90000"/>
<path d="M9.75293 8.51694C6.83581 11.2089 6.57062 15.8335 9.73897 18.8154C10.2973 19.3399 11.1766 19.3123 11.707 18.7601C12.2374 18.2079 12.2095 17.3382 11.6512 16.8137C9.6971 14.9776 9.86459 12.189 11.6372 10.5463C12.1955 10.0217 12.2374 9.15197 11.707 8.59977C11.2045 8.03377 10.3112 8.00616 9.75293 8.51694Z" fill="#F90000"/>
<path d="M9.04043 22.7774C9.59873 22.0871 9.45916 21.2588 8.76128 20.8447C6.52808 19.3261 5.13233 16.4271 5.13233 13.6662C5.13233 10.7671 6.3885 8.28226 8.76128 6.48763C9.45916 6.07348 9.45916 5.10714 9.04043 4.55495C8.62171 3.86471 7.64468 3.86471 7.08638 4.27885C4.01572 6.62568 2.20125 9.80079 2.34082 13.6662C2.4804 17.3935 4.29487 20.9827 7.08638 23.0534C7.36553 23.1915 7.64468 23.3295 7.92383 23.3295C8.34255 23.3295 8.76128 23.1915 9.04043 22.7774Z" fill="#F90000"/>
<path d="M20.3305 16.7999C19.7862 17.3382 19.7583 18.2079 20.2886 18.7601C20.819 19.3123 21.6983 19.3399 22.2566 18.8154C25.425 15.8335 25.1598 11.2089 22.2427 8.51694C21.6844 7.99236 20.7911 8.03377 20.2747 8.58597C19.7443 9.13816 19.7862 10.0217 20.3445 10.5325C22.131 12.1752 22.2846 14.9638 20.3305 16.7999Z" fill="#F90000"/>
<path d="M29.6605 13.6662C29.7861 9.80079 27.9856 6.62568 24.9149 4.27885C24.3566 3.86471 23.3796 3.86471 22.9609 4.55495C22.5421 5.10714 22.5421 6.07348 23.24 6.48763C25.6128 8.28226 26.869 10.7671 26.869 13.6662C26.869 16.4271 25.4732 19.3261 23.24 20.8447C22.5421 21.2588 22.4026 22.0871 22.9609 22.7774C23.24 23.1915 23.6587 23.3295 24.0775 23.3295C24.3566 23.3295 24.6358 23.1915 24.9149 23.0534C27.846 20.9827 29.6605 17.3935 29.6605 13.6662Z" fill="#F90000"/>
</svg>

<svg xmlns="http://www.w3.org/2000/svg" width="32" height="32" fill="none" viewBox="0 0 32 32">
  <path fill="#fff" d="M3.367 28.633C.913 26.18 0 22.18 0 16 0 9.82.913 5.82 3.367 3.367 5.82.913 9.82 0 16 0c6.18 0 10.18.913 12.633 3.367C31.087 5.82 32 9.82 32 16c0 6.18-.913 10.18-3.367 12.633C26.18 31.087 22.18 32 16 32c-6.18 0-10.18-.913-12.633-3.367Z"/>
  <path fill="#F90000" d="M13.953 31.963c-1.035-.04-2-.112-2.898-.221l3.337-15.546a3 3 0 1 1 2.909.171l-3.348 15.596Z"/>
  <path fill="#F90000" d="M9.753 8.517c-2.917 2.692-3.182 7.317-.014 10.298a1.402 1.402 0 0 0 1.968-.055 1.365 1.365 0 0 0-.056-1.946c-1.954-1.836-1.786-4.625-.014-6.268.558-.524.6-1.394.07-1.946-.503-.566-1.396-.594-1.954-.083Z"/>
  <path fill="#F90000" d="M9.04 22.777c.559-.69.42-1.518-.279-1.932-2.233-1.519-3.629-4.418-3.629-7.179 0-2.899 1.256-5.384 3.63-7.178.697-.415.697-1.38.278-1.933-.418-.69-1.395-.69-1.954-.276-3.07 2.347-4.885 5.522-4.745 9.387.14 3.727 1.954 7.317 4.745 9.387.28.139.559.276.838.276.418 0 .837-.137 1.116-.552ZM20.33 16.8a1.394 1.394 0 0 0-.041 1.96c.53.552 1.41.58 1.968.055 3.168-2.982 2.903-7.606-.014-10.298a1.402 1.402 0 0 0-1.968.069 1.365 1.365 0 0 0 .07 1.947c1.786 1.642 1.94 4.43-.015 6.267Z"/>
  <path fill="#F90000" d="M29.66 13.666c.126-3.865-1.675-7.04-4.745-9.387-.558-.414-1.535-.414-1.954.276-.419.552-.419 1.518.279 1.933 2.373 1.794 3.629 4.28 3.629 7.178 0 2.761-1.396 5.66-3.629 7.179-.698.414-.837 1.242-.28 1.932.28.415.699.552 1.117.552.28 0 .559-.137.838-.276 2.93-2.07 4.745-5.66 4.745-9.387Z"/>
</svg>
